X: 22059
T: Knockdhu
R: reel
M: 4/4
K: Aminor
|:A,2 ED CA,A,G,|A,CEG A2 E^F|G2 BG AG E2|DEGD EDB,G,|
A,2 ED CA,A,G,|A,CEG A2 E^F|G2 BG AG E2|DEGG, B,A, A,2:|
|:A2 aA gA aA|e2 e d cAAB|G2 BG AG E2|D3 E GABG|
A2 aA gA aA|(e2 e)d cAAB|G2 BG AG E2|DEGG, B,A, A,2:|

